彩票之家 -首页导航入口✅️ 【—辋：8͟6͟B͟F͟.͟C͟C͟】✅️彩票之家 -首页导航入口✅️【—辋：2͟9͟B͟F͟.͟V͟I͟P̲͟—】✅️<浏览器手动输入网址>，点平台首页微聊好友 老师会一对一为您服务！✅️✅️✅️ 【新客专属 存款3送】 【首存返利50%】 【首存最高可领18818】【二存最高再送16888】【存款笔笔赠送3%】 【每周六充值最高返利15%】【代理返佣最高55%抽成无上限】

- 全网最有实力平台    点击注册   WWW.86BF.CC

- 老师一对一辅导     点击咨询   WWW.29BF.VIP

- 合营代理无上限    点击开户   WWW.86BF.CC


📖 一、什么是大发彩票

大发彩票是一款提供多种娱乐玩法的平台，页面设计简洁直观，操作流程清晰，并配有客服服务和相关玩法介绍。用户通过手机即可浏览平台内容，了解不同玩法的基本规则。

🎲 二、平台玩法科普

大发彩票提供多种休闲娱乐玩法，部分项目节奏较快、规则容易理解，新手可先阅读玩法说明，从小额体验开始。参与过程中应合理安排时间和预算，保持理性心态，切勿盲目追投。📊


彩票之家 -首页导航入口✅️ 【—辋：8͟6͟B͟F͟.͟C͟C͟】✅️彩票之家 -首页导航入口✅️【—辋：2͟9͟B͟F͟.͟V͟I͟P̲͟—】✅️<浏览器手动输入网址>，点平台首页微聊好友 老师会一对一为您服务！✅️✅️✅️ 

![{我是你爹}](https://i.postimg.cc/3R0kqpZy/86.png)

百灵百人牛牛✅网：８６ＢＦ．ＣＣ  浏览器手动输入

ag8登录不了✅网：２９ＢＦ．ＶＩＰ 浏览器手动输入

mg平|台app下载✅网：８６ＢＦ．ＣＣ  浏览器手动输入

欢乐生肖下载✅网：２９ＢＦ．ＶＩＰ 浏览器手动输入

购彩快3官方正版下载✅网：８６ＢＦ．ＣＣ  浏览器手动输入

ag欧洲厅app官方下载✅网：２９ＢＦ．ＶＩＰ 浏览器手动输入

乐发彩票app官方下载✅网：８６ＢＦ．ＣＣ  浏览器手动输入

安装福彩体彩软件下载✅网：２９ＢＦ．ＶＩＰ 浏览器手动输入

极速快3高手技巧✅网：８６ＢＦ．ＣＣ  浏览器手动输入

极速飞艇下载✅网：２９ＢＦ．ＶＩＰ 浏览器手动输入

4人斗牛捡牌公式原理✅网：８６ＢＦ．ＣＣ  浏览器手动输入

快3福彩APP下载✅网：２９ＢＦ．ＶＩＰ 浏览器手动输入

正规大小单双快3下载✅网：８６ＢＦ．ＣＣ  浏览器手动输入

快3平|台下载✅网：２９ＢＦ．ＶＩＰ 浏览器手动输入

okpay钱包app安装✅网：８６ＢＦ．ＣＣ  浏览器手动输入

下载一个福彩3d✅网：２９ＢＦ．ＶＩＰ 浏览器手动输入

必出组三规律✅网：８６ＢＦ．ＣＣ  浏览器手动输入

pg584苹果彩票✅网：２９ＢＦ．ＶＩＰ 浏览器手动输入

大发导师回血✅网：８６ＢＦ．ＣＣ  浏览器手动输入

正规极速赛车官网✅网：２９ＢＦ．ＶＩＰ 浏览器手动输入

大发回血导师是真的吗✅网：８６ＢＦ．ＣＣ  浏览器手动输入

ag厉害吗✅网：２９ＢＦ．ＶＩＰ 浏览器手动输入

大发三分快3期全天免费计划✅网：８６ＢＦ．ＣＣ  浏览器手动输入

彩票快3官网✅网：２９ＢＦ．ＶＩＰ 浏览器手动输入

abpay交易平|台下载✅网：８６ＢＦ．ＣＣ  浏览器手动输入

快3包赚包赔计划✅网：２９ＢＦ．ＶＩＰ 浏览器手动输入

极速赛车冠亚和计算公式✅网：８６ＢＦ．ＣＣ  浏览器手动输入

大小快3app下载特色版官网✅网：２９ＢＦ．ＶＩＰ 浏览器手动输入

大发彩神官方网站✅网：８６ＢＦ．ＣＣ  浏览器手动输入

mg网站开户✅网：２９ＢＦ．ＶＩＰ 浏览器手动输入

大发彩票app下载✅网：８６ＢＦ．ＣＣ  浏览器手动输入

大发导师✅网：２９ＢＦ．ＶＩＰ 浏览器手动输入

幸运快3彩票官网版✅网：８６ＢＦ．ＣＣ  浏览器手动输入

5分彩票✅网：２９ＢＦ．ＶＩＰ 浏览器手动输入

极速快3计划✅网：８６ＢＦ．ＣＣ  浏览器手动输入

走势图怎么看最准确✅网：２９ＢＦ．ＶＩＰ 浏览器手动输入

大发彩票预测✅网：８６ＢＦ．ＣＣ  浏览器手动输入

赌博公式加注25%✅网：２９ＢＦ．ＶＩＰ 浏览器手动输入

网上买彩票平|台靠谱吗✅网：８６ＢＦ．ＣＣ  浏览器手动输入

鸿发彩票最高代理✅网：２９ＢＦ．ＶＩＰ 浏览器手动输入

大发最稳的回血技术✅网：８６ＢＦ．ＣＣ  浏览器手动输入

大发手游下载安装✅网：２９ＢＦ．ＶＩＰ 浏览器手动输入

更新时间: 2026-10-09 05:43:02 (UTC+8)  【屠賬SYTBCLJXF諛僦】

📰 AI Builders・今日热点
-
-----------热点新闻导读----------

原标题：绿色快递包装的阅读与学习资源 | 引用：https://github.com/smithshelby8/DNlXB/blob/main/gxPm/%EF%BC%92%EF%BC%90%EF%BC%92%EF%BC%97%E4%B8%93%E6%A0%8F%E8%81%9A%E7%84%A6%3AQQ%E5%BD%A9%E7%A5%A8-%E6%B3%A8%E5%86%8C-%E5%93%94%E5%93%A9%E6%91%84%E5%BD%B1.mediawiki/?956=663

原标题：青少年科普实践的设施维护观察 | 引用：https://github.com/smithshelby8/DNlXB/commit/a8520abd4bef00915724ed606a23655c4e4fac4e/?321=884

原标题：绿色办公实践的组织方法与经验 | 引用：https://github.com/smithshelby8/DNlXB/blob/main/gxPm/%EF%BC%92%EF%BC%90%EF%BC%92%EF%BC%97%E4%B8%93%E6%A0%8F%E8%81%9A%E7%84%A6%3AQQ%E5%BD%A9%E7%A5%A8-%E6%B3%A8%E5%86%8C-%E5%93%94%E5%93%A9%E6%91%84%E5%BD%B1.mediawiki/?824

原标题：安全出行教育的服务质量观察 | 引用：https://github.com/smithshelby8/DNlXB/commit/a8520abd4bef00915724ed606a23655c4e4fac4e/?588

原标题：科学教育活动的资源利用方法 | 引用：https://github.com/smithshelby8/DNlXB/blob/main/gxPm/%EF%BC%92%EF%BC%90%EF%BC%92%EF%BC%96%E6%95%B0%E6%8D%AE%E9%A3%8E%E5%90%91%3AQQ%E5%BD%A9%E7%A5%A8-%E6%AD%A3%E8%A7%84%E8%B4%AD%E5%BD%A9%E4%B8%AD%E5%BF%83-%E9%98%BF%E9%87%8C%E5%B7%B4%E5%B7%B4%E8%B5%84%E8%AE%AF.mediawiki/?686=653

原标题：社区活动报名的数字工具使用体验 | 引用：https://github.com/smithshelby8/DNlXB/commit/8297afa2c270074b85b9aa39ea9b013aac1144f9/?717=337

原标题：社区垃圾回收的实用信息清单 | 引用：https://github.com/smithshelby8/DNlXB/blob/main/gxPm/%EF%BC%92%EF%BC%90%EF%BC%92%EF%BC%96%E6%95%B0%E6%8D%AE%E9%A3%8E%E5%90%91%3AQQ%E5%BD%A9%E7%A5%A8-%E6%AD%A3%E8%A7%84%E8%B4%AD%E5%BD%A9%E4%B8%AD%E5%BF%83-%E9%98%BF%E9%87%8C%E5%B7%B4%E5%B7%B4%E8%B5%84%E8%AE%AF.mediawiki/?330

原标题：城市雨天出行的空间使用体验 | 引用：https://github.com/smithshelby8/DNlXB/commit/8297afa2c270074b85b9aa39ea9b013aac1144f9/?200

原标题：城市休闲步道的资源整合思路 | 引用：https://github.com/smithshelby8/DNlXB/blob/main/gxPm/%EF%BC%92%EF%BC%90%EF%BC%92%EF%BC%96%E6%A0%B8%E5%BF%83%E7%9F%A5%E9%81%93%3AQQ%E5%BD%A9%E7%A5%A8-%E5%AE%89%E5%85%A8%E8%B4%AD%E5%BD%A9-%E7%BD%91%E6%98%93%E4%BA%B2%E5%AD%90.pod/?666=638

原标题：健康步道使用的社区参与观察 | 引用：https://github.com/smithshelby8/DNlXB/commit/55ee8cec1486435b204fb4ac2395ccb55fcb4787/?144=157

原标题：街区绿化养护的服务信息整理 | 引用：https://github.com/smithshelby8/DNlXB/blob/main/gxPm/%EF%BC%92%EF%BC%90%EF%BC%92%EF%BC%96%E6%A0%B8%E5%BF%83%E7%9F%A5%E9%81%93%3AQQ%E5%BD%A9%E7%A5%A8-%E5%AE%89%E5%85%A8%E8%B4%AD%E5%BD%A9-%E7%BD%91%E6%98%93%E4%BA%B2%E5%AD%90.pod/?769

原标题：社区生活指南中的沟通与协作 | 引用：https://github.com/smithshelby8/DNlXB/commit/55ee8cec1486435b204fb4ac2395ccb55fcb4787/?125

原标题：家庭节能实践的社区参与观察 | 引用：https://github.com/smithshelby8/DNlXB/blob/main/gxPm/%EF%BC%92%EF%BC%90%EF%BC%92%EF%BC%97%E7%B2%BE%E9%80%89%E9%A2%91%E9%81%93%3AQQ%E5%BD%A9%E7%A5%A8-%E5%BD%A9%E7%A5%A8app%E4%B8%8B%E8%BD%BD-%E4%BA%9A%E9%A9%AC%E9%80%8A%E6%96%87%E5%BA%93.textile/?993=406

原标题：绿色出行服务的协商参与方式 | 引用：https://github.com/smithshelby8/DNlXB/commit/a5bf91e213f057f7dd1f742472df720a4c24bd82/?794=148

原标题：科学信息获取的长期维护要点 | 引用：https://github.com/smithshelby8/DNlXB/blob/main/gxPm/%EF%BC%92%EF%BC%90%EF%BC%92%EF%BC%97%E7%B2%BE%E9%80%89%E9%A2%91%E9%81%93%3AQQ%E5%BD%A9%E7%A5%A8-%E5%BD%A9%E7%A5%A8app%E4%B8%8B%E8%BD%BD-%E4%BA%9A%E9%A9%AC%E9%80%8A%E6%96%87%E5%BA%93.textile/?860

原标题：城市公共空间的日常使用指南 | 引用：https://github.com/smithshelby8/DNlXB/commit/a5bf91e213f057f7dd1f742472df720a4c24bd82/?505

原标题：城市树木认养的基础设施观察 | 引用：https://github.com/smithshelby8/DNlXB/blob/main/gxPm/%EF%BC%92%EF%BC%90%EF%BC%92%EF%BC%96%E6%8A%95%E8%B5%84%E7%BB%86%E8%AF%B4%3AQQ%E5%BD%A9%E7%A5%A8-APP%E7%9A%84%E6%9C%80%E6%96%B0%E7%89%88%E6%9C%AC%E6%9B%B4%E6%96%B0%E5%86%85%E5%AE%B9-%E8%85%BE%E8%AE%AF%E8%AF%BB%E6%8A%A5.pod/?326=815

原标题：社区家校合作的持续改进方向 | 引用：https://github.com/smithshelby8/DNlXB/commit/d9353073e696e49c4605d59255b900770bf747dd/?299=733

原标题：健康步道使用的服务范围梳理 | 引用：https://github.com/smithshelby8/DNlXB/blob/main/gxPm/%EF%BC%92%EF%BC%90%EF%BC%92%EF%BC%96%E6%8A%95%E8%B5%84%E7%BB%86%E8%AF%B4%3AQQ%E5%BD%A9%E7%A5%A8-APP%E7%9A%84%E6%9C%80%E6%96%B0%E7%89%88%E6%9C%AC%E6%9B%B4%E6%96%B0%E5%86%85%E5%AE%B9-%E8%85%BE%E8%AE%AF%E8%AF%BB%E6%8A%A5.pod/?144

原标题：城市骑行环境的行动步骤参考 | 引用：https://github.com/smithshelby8/DNlXB/commit/d9353073e696e49c4605d59255b900770bf747dd/?789
